X:5
T:Grinds Hans jässpôdspolska, efter Börjes Olle
O:Rättvik, Dalarna
M:3/4
L:1/16
S:"Ola & Per" CD-Skiva
R:Polska
Z:ABC-transkribering av Linus Fredin
K:G
D4 G4 {FG}A3B|(3c4B4G4 E4-|(3E4(c4{dc}B4) A3G|(3G2F2G2 (ABAF) D4-|
D4 G4 {FG}A3B|(3c4B4G4 E4-|(3E4(c4{dc}B4) A3G|(FA3) G8:|
|:(3G3Bd2- (3d2c2-c2 (3B2-B2A2|(3G2c2e2- (3e2d2-d2 (3c2-c2B2|A3B (cd)cB A3G|(3G2F2G2 ABAF D4-|
D3d- (3d2c2-c2 (3B2-B2A2|(3G2c2e2- (3e2d2-d2 (3c2-c2B2|A3B (cd)cB A3G|(F2{GF}EF) G8:|

